Numix-GalliumOS/24/devices/network-workgroup.svg

<?xml version="1.0" encoding="UTF-8" standalone="no"?>
<svg
   xmlns:dc="http://purl.org/dc/elements/1.1/"
   xmlns:cc="http://creativecommons.org/ns#"
   xmlns:rdf="http://www.w3.org/1999/02/22-rdf-syntax-ns#"
   xmlns:svg="http://www.w3.org/2000/svg"
   xmlns="http://www.w3.org/2000/svg"
   xmlns:sodipodi="http://sodipodi.sourceforge.net/DTD/sodipodi-0.dtd"
   xmlns:inkscape="http://www.inkscape.org/namespaces/inkscape"
   width="24"
   height="24"
   viewBox="0 0 24 24"
   id="svg2987"
   version="1.1"
   inkscape:version="0.91 r"
   sodipodi:docname="samba.svg">
  <metadata
     id="metadata2995">
    <rdf:RDF>
      <cc:Work
         rdf:about="">
        <dc:format>image/svg+xml</dc:format>
        <dc:type
           rdf:resource="http://purl.org/dc/dcmitype/StillImage" />
      </cc:Work>
    </rdf:RDF>
  </metadata>
  <defs
     id="defs2993" />
  <sodipodi:namedview
     pagecolor="#ffffff"
     bordercolor="#666666"
     borderopacity="1"
     objecttolerance="10"
     gridtolerance="10"
     guidetolerance="10"
     inkscape:pageopacity="0"
     inkscape:pageshadow="2"
     inkscape:window-width="640"
     inkscape:window-height="480"
     id="namedview2991" />
  <path
     style="fill:#8e9da8"
     d="M 2.597656 3.957031 C 2.253906 4.019531 1.980469 4.351562 1.980469 4.699219 L 1.980469 19.050781 C 1.984375 19.4375 2.335938 19.785156 2.722656 19.792969 L 21.027344 19.792969 C 21.414062 19.785156 21.765625 19.4375 21.769531 19.050781 L 21.769531 6.742188 C 21.765625 6.355469 21.414062 6.007812 21.027344 6 L 13.855469 6 L 13.855469 4.699219 C 13.847656 4.3125 13.5 3.964844 13.113281 3.957031 L 2.722656 3.957031 C 2.679688 3.953125 2.640625 3.953125 2.597656 3.957031 Z M 11.378906 8.957031 L 11.875 8.957031 C 14.058594 8.957031 15.832031 10.734375 15.832031 12.917969 C 15.832031 15.101562 14.058594 16.875 11.378906 16.875 C 9.691406 16.875 7.917969 15.101562 7.917969 12.917969 C 7.917969 10.734375 9.691406 8.957031 11.378906 8.957031 Z M 11.441406 9.515625 C 11.289062 9.535156 11.125 9.566406 10.980469 9.605469 L 10.515625 10.382812 C 10.554688 10.386719 10.585938 10.382812 10.636719 10.414062 C 10.886719 10.554688 11 10.671875 11.070312 10.691406 C 11.140625 10.707031 11.453125 10.277344 11.226562 10.753906 C 10.996094 11.226562 10.902344 11.390625 10.636719 11.496094 C 10.621094 11.5 10.59375 11.488281 10.574219 11.496094 C 10.507812 11.574219 10.414062 11.671875 10.296875 11.773438 C 10.046875 11.996094 9.925781 12.015625 9.925781 12.238281 C 9.925781 12.457031 9.945312 12.652344 9.773438 12.945312 C 9.597656 13.246094 9.449219 13.25 9.523438 13.472656 C 9.597656 13.695312 9.652344 14.078125 9.523438 13.90625 C 9.398438 13.734375 9.46875 13.398438 9.371094 13.597656 C 9.28125 13.769531 9.078125 13.820312 9.058594 14 C 9.058594 14.023438 9.054688 14.058594 9.058594 14.09375 C 9.125 14.308594 9.496094 14.015625 9.496094 14.183594 C 9.496094 14.359375 9.171875 14.347656 9.246094 14.496094 C 9.320312 14.640625 9.613281 14.203125 9.867188 14.277344 C 10.113281 14.351562 9.949219 14.394531 10.171875 14.496094 C 10.398438 14.59375 10.515625 14.683594 10.515625 14.835938 C 10.515625 14.984375 11.238281 14.925781 11.164062 15.171875 C 11.089844 15.421875 11.019531 15.367188 10.792969 15.636719 C 10.667969 15.789062 10.554688 15.875 10.484375 15.949219 C 10.585938 16.023438 10.609375 16.050781 10.730469 16.007812 C 10.886719 15.957031 10.699219 15.894531 10.824219 15.824219 C 10.855469 15.804688 10.867188 15.777344 10.886719 15.761719 C 10.902344 15.746094 10.910156 15.742188 10.945312 15.730469 C 11.023438 15.707031 11.160156 15.699219 11.503906 15.699219 C 12.191406 15.699219 12.554688 15.730469 12.554688 15.730469 C 12.554688 15.730469 12.769531 15.730469 12.554688 15.855469 C 12.398438 15.945312 12.101562 16.089844 12.0625 16.132812 C 12.074219 16.128906 12.082031 16.144531 12.121094 16.132812 C 12.441406 16.046875 12.894531 15.984375 13.019531 15.949219 C 13.070312 15.933594 13.351562 15.773438 13.578125 15.667969 C 13.585938 15.648438 13.597656 15.628906 13.605469 15.609375 L 13.578125 15.609375 C 13.402344 15.53125 13.246094 15.179688 13.296875 15.082031 C 13.347656 14.980469 13.480469 14.898438 13.605469 14.648438 C 13.734375 14.398438 13.707031 14.605469 13.359375 14.152344 C 13.011719 13.703125 12.824219 14.179688 12.648438 14.03125 C 12.472656 13.878906 12.117188 13.746094 11.96875 13.472656 C 11.820312 13.199219 11.875 13.402344 11.875 13.101562 C 11.875 12.804688 11.863281 13.011719 11.9375 12.761719 C 12.011719 12.511719 12.210938 12.472656 12.464844 12.296875 C 12.496094 12.273438 12.519531 12.285156 12.554688 12.269531 C 12.5 12.214844 12.433594 12.082031 12.277344 11.925781 C 12.277344 11.925781 12.429688 11.605469 12.554688 11.554688 C 12.675781 11.507812 12.761719 11.539062 12.925781 11.585938 C 12.933594 11.558594 12.917969 11.554688 12.925781 11.492188 C 12.953125 11.292969 12.863281 11.402344 12.863281 11.277344 C 12.863281 11.152344 12.90625 11.296875 13.082031 11.246094 C 13.257812 11.195312 13.246094 10.824219 13.421875 10.875 C 13.597656 10.925781 13.609375 10.824219 13.761719 10.597656 C 13.910156 10.371094 13.746094 10.480469 13.546875 10.382812 C 13.34375 10.28125 13.53125 10.546875 13.484375 10.71875 C 13.433594 10.894531 13.285156 10.785156 13.113281 10.414062 C 12.9375 10.035156 13.074219 10.1875 13.171875 9.886719 C 13.191406 9.835938 13.210938 9.792969 13.234375 9.761719 C 12.910156 9.621094 12.554688 9.546875 12.183594 9.515625 C 12.183594 9.53125 12.183594 9.527344 12.183594 9.546875 C 12.148438 9.878906 11.976562 9.664062 11.90625 9.699219 C 11.835938 9.734375 11.378906 10.390625 11.378906 10.320312 C 11.378906 10.25 11.441406 10.132812 11.441406 10.132812 C 11.441406 10.132812 11.5 9.835938 11.441406 9.515625 Z M 12.863281 10.84375 C 12.941406 10.855469 13.011719 10.925781 13.050781 11 C 13.070312 11.039062 13.042969 11.050781 13.019531 11.0625 C 13.019531 11.0625 13.050781 11.160156 13.050781 11.183594 C 13.050781 11.207031 12.984375 11.214844 12.863281 11.183594 C 12.777344 11.160156 12.867188 11.136719 12.925781 11.089844 L 12.804688 11.089844 C 12.757812 11.089844 12.75 11.070312 12.742188 11.0625 C 12.746094 11.066406 12.730469 11.078125 12.742188 11.089844 C 12.796875 11.164062 12.730469 11.105469 12.648438 11.121094 C 12.566406 11.140625 12.640625 11.070312 12.679688 11 C 12.679688 11 12.730469 11.046875 12.742188 11.0625 C 12.757812 11.027344 12.769531 10.960938 12.769531 10.875 C 12.800781 10.863281 12.839844 10.835938 12.863281 10.84375 Z M 14.75 11.0625 C 14.625 11.15625 14.480469 11.363281 14.347656 11.496094 C 14.125 11.71875 14.46875 11.75 14.597656 11.773438 C 14.722656 11.796875 14.839844 11.710938 15.089844 11.710938 C 15.089844 11.699219 15.066406 11.691406 15.0625 11.679688 C 15.027344 11.683594 15.007812 11.679688 14.96875 11.679688 C 14.820312 11.679688 14.902344 11.570312 14.9375 11.371094 C 14.886719 11.265625 14.8125 11.15625 14.75 11.0625 Z M 13.207031 11.527344 C 13.152344 11.507812 13.082031 11.5625 12.988281 11.617188 C 13.054688 11.714844 12.847656 11.976562 12.742188 12.175781 C 12.738281 12.179688 12.714844 12.199219 12.710938 12.203125 C 12.925781 12.171875 13.261719 12.234375 14.007812 12.421875 C 14.007812 12.421875 14.300781 12.320312 14.347656 12.421875 C 14.367188 12.457031 14.449219 12.476562 14.566406 12.484375 C 14.867188 12.367188 14.71875 12.292969 14.71875 12.050781 C 14.71875 11.800781 14.332031 12.050781 14.378906 11.925781 C 14.429688 11.800781 14.339844 11.824219 14.164062 11.648438 C 13.988281 11.472656 14.011719 12.082031 13.882812 11.957031 C 13.757812 11.832031 13.75 11.933594 13.699219 11.832031 C 13.648438 11.734375 13.484375 11.554688 13.484375 11.554688 C 13.484375 11.554688 13.601562 11.710938 13.578125 11.957031 C 13.550781 12.207031 13.207031 11.988281 13.207031 11.988281 C 13.207031 11.988281 13.257812 11.949219 13.359375 11.925781 C 13.460938 11.902344 13.34375 11.761719 13.265625 11.585938 C 13.246094 11.546875 13.226562 11.53125 13.207031 11.527344 Z M 15.308594 12.761719 C 15.28125 12.785156 15.25 12.808594 15.214844 12.824219 C 14.9375 12.925781 14.71875 13.132812 14.71875 13.132812 C 14.71875 13.132812 15.050781 13.148438 15.277344 13.351562 C 15.292969 13.214844 15.308594 13.058594 15.308594 12.917969 C 15.308594 12.867188 15.308594 12.8125 15.308594 12.761719 Z "
     id="path2989" />
</svg>

<svg xmlns="http://www.w3.org/2000/svg" viewBox="0 0 24 24">
 <path d="m 2.598 3.957 c -0.344 0.062 -0.617 0.395 -0.617 0.742 l 0 14.352 c 0.004 0.387 0.355 0.734 0.742 0.742 l 18.305 0 c 0.387 -0.008 0.738 -0.355 0.742 -0.742 l 0 -12.309 c -0.004 -0.387 -0.355 -0.734 -0.742 -0.742 l -7.172 0 l 0 -1.301 c -0.008 -0.387 -0.355 -0.734 -0.742 -0.742 l -10.391 0 c -0.043 -0.004 -0.082 -0.004 -0.125 0 m 8.781 5 l 0.496 0 c 2.184 0 3.957 1.777 3.957 3.961 c 0 2.184 -1.773 3.957 -4.453 3.957 c -1.688 0 -3.461 -1.773 -3.461 -3.957 c 0 -2.184 1.773 -3.961 3.461 -3.961 m 0.063 0.559 c -0.152 0.02 -0.316 0.051 -0.461 0.09 l -0.465 0.777 c 0.039 0.004 0.07 0 0.121 0.031 c 0.25 0.141 0.363 0.258 0.434 0.277 c 0.07 0.016 0.383 -0.414 0.156 0.063 c -0.23 0.473 -0.324 0.637 -0.59 0.742 c -0.016 0.004 -0.043 -0.008 -0.063 0 c -0.066 0.078 -0.16 0.176 -0.277 0.277 c -0.25 0.223 -0.371 0.242 -0.371 0.465 c 0 0.219 0.02 0.414 -0.152 0.707 c -0.176 0.301 -0.324 0.305 -0.25 0.527 c 0.074 0.223 0.129 0.605 0 0.434 c -0.125 -0.172 -0.055 -0.508 -0.152 -0.309 c -0.09 0.172 -0.293 0.223 -0.313 0.402 c 0 0.023 -0.004 0.059 0 0.094 c 0.066 0.215 0.438 -0.078 0.438 0.09 c 0 0.176 -0.324 0.164 -0.25 0.313 c 0.074 0.145 0.367 -0.293 0.621 -0.219 c 0.246 0.074 0.082 0.117 0.305 0.219 c 0.227 0.098 0.344 0.188 0.344 0.34 c 0 0.148 0.723 0.09 0.648 0.336 c -0.074 0.25 -0.145 0.195 -0.371 0.465 c -0.125 0.152 -0.238 0.238 -0.309 0.313 c 0.102 0.074 0.125 0.102 0.246 0.059 c 0.156 -0.051 -0.031 -0.113 0.094 -0.184 c 0.031 -0.02 0.043 -0.047 0.063 -0.063 c 0.016 -0.016 0.023 -0.02 0.059 -0.031 c 0.078 -0.023 0.215 -0.031 0.559 -0.031 c 0.688 0 1.051 0.031 1.051 0.031 c 0 0 0.215 0 0 0.125 c -0.156 0.09 -0.453 0.234 -0.492 0.277 c 0.012 -0.004 0.02 0.012 0.059 0 c 0.32 -0.086 0.773 -0.148 0.898 -0.184 c 0.051 -0.016 0.332 -0.176 0.559 -0.281 c 0.008 -0.02 0.02 -0.039 0.027 -0.059 l -0.027 0 c -0.176 -0.078 -0.332 -0.43 -0.281 -0.527 c 0.051 -0.102 0.184 -0.184 0.309 -0.434 c 0.129 -0.25 0.102 -0.043 -0.246 -0.496 c -0.348 -0.449 -0.535 0.027 -0.711 -0.121 c -0.176 -0.152 -0.531 -0.285 -0.68 -0.559 c -0.148 -0.273 -0.094 -0.07 -0.094 -0.371 c 0 -0.297 -0.012 -0.09 0.063 -0.34 c 0.074 -0.25 0.273 -0.289 0.527 -0.465 c 0.031 -0.023 0.055 -0.012 0.09 -0.027 c -0.055 -0.055 -0.121 -0.188 -0.277 -0.344 c 0 0 0.152 -0.32 0.277 -0.371 c 0.121 -0.047 0.207 -0.016 0.371 0.031 c 0.008 -0.027 -0.008 -0.031 0 -0.094 c 0.027 -0.199 -0.063 -0.09 -0.063 -0.215 c 0 -0.125 0.043 0.02 0.219 -0.031 c 0.176 -0.051 0.164 -0.422 0.34 -0.371 c 0.176 0.051 0.188 -0.051 0.34 -0.277 c 0.148 -0.227 -0.016 -0.117 -0.215 -0.215 c -0.203 -0.102 -0.016 0.164 -0.063 0.336 c -0.051 0.176 -0.199 0.066 -0.371 -0.305 c -0.176 -0.379 -0.039 -0.227 0.059 -0.527 c 0.02 -0.051 0.039 -0.094 0.063 -0.125 c -0.324 -0.141 -0.68 -0.215 -1.051 -0.246 c 0 0.016 0 0.012 0 0.031 c -0.035 0.332 -0.207 0.117 -0.277 0.152 c -0.07 0.035 -0.527 0.691 -0.527 0.621 c 0 -0.07 0.063 -0.188 0.063 -0.188 c 0 0 0.059 -0.297 0 -0.617 m 1.422 1.328 c 0.078 0.012 0.148 0.082 0.188 0.156 c 0.02 0.039 -0.008 0.051 -0.031 0.063 c 0 0 0.031 0.098 0.031 0.121 c 0 0.023 -0.066 0.031 -0.188 0 c -0.086 -0.023 0.004 -0.047 0.063 -0.094 l -0.121 0 c -0.047 0 -0.055 -0.02 -0.063 -0.027 c 0.004 0.004 -0.012 0.016 0 0.027 c 0.055 0.074 -0.012 0.016 -0.094 0.031 c -0.082 0.02 -0.008 -0.051 0.031 -0.121 c 0 0 0.051 0.047 0.063 0.063 c 0.016 -0.035 0.027 -0.102 0.027 -0.188 c 0.031 -0.012 0.07 -0.039 0.094 -0.031 m 1.887 0.219 c -0.125 0.094 -0.27 0.301 -0.402 0.434 c -0.223 0.223 0.121 0.254 0.25 0.277 c 0.125 0.023 0.242 -0.063 0.492 -0.063 c 0 -0.012 -0.023 -0.02 -0.027 -0.031 c -0.035 0.004 -0.055 0 -0.094 0 c -0.148 0 -0.066 -0.109 -0.031 -0.309 c -0.051 -0.105 -0.125 -0.215 -0.188 -0.309 m -1.543 0.465 c -0.055 -0.02 -0.125 0.035 -0.219 0.09 c 0.066 0.098 -0.141 0.359 -0.246 0.559 c -0.004 0.004 -0.027 0.023 -0.031 0.027 c 0.215 -0.031 0.551 0.031 1.297 0.219 c 0 0 0.293 -0.102 0.34 0 c 0.02 0.035 0.102 0.055 0.219 0.063 c 0.301 -0.117 0.152 -0.191 0.152 -0.434 c 0 -0.25 -0.387 0 -0.34 -0.125 c 0.051 -0.125 -0.039 -0.102 -0.215 -0.277 c -0.176 -0.176 -0.152 0.434 -0.281 0.309 c -0.125 -0.125 -0.133 -0.023 -0.184 -0.125 c -0.051 -0.098 -0.215 -0.277 -0.215 -0.277 c 0 0 0.117 0.156 0.094 0.402 c -0.027 0.25 -0.371 0.031 -0.371 0.031 c 0 0 0.051 -0.039 0.152 -0.063 c 0.102 -0.023 -0.016 -0.164 -0.094 -0.34 c -0.02 -0.039 -0.039 -0.055 -0.059 -0.059 m 2.102 1.234 c -0.027 0.023 -0.059 0.047 -0.094 0.063 c -0.277 0.102 -0.496 0.309 -0.496 0.309 c 0 0 0.332 0.016 0.559 0.219 c 0.016 -0.137 0.031 -0.293 0.031 -0.434 c 0 -0.051 0 -0.105 0 -0.156 Z" style="fill:#8e9da8"/>
</svg>
